packages/vibrant-icons/assets/icons/ChatBubble/Regular.svg

<svg width="24" height="24" viewBox="0 0 24 24" fill="none" xmlns="http://www.w3.org/2000/svg">
<path d="M21.4489 17.8279L21.4499 21.4499L17.8244 21.4509L17.8264 21.4489C16.1329 22.4954 14.1369 23.0999 11.9999 23.0999C5.8694 23.0999 0.899902 18.1304 0.899902 11.9999C0.899902 5.8694 5.8694 0.899902 11.9999 0.899902C18.1304 0.899902 23.0999 5.8694 23.0999 11.9999C23.0999 14.1389 22.4944 16.1364 21.4459 17.8309L21.4489 17.8279ZM20.8999 11.9999C20.8999 7.0924 16.9074 3.0999 11.9999 3.0999C7.0924 3.0999 3.0999 7.0924 3.0999 11.9999C3.0999 16.9074 7.0924 20.8999 11.9999 20.8999C13.6624 20.8999 15.2834 20.4389 16.6879 19.5669L17.1964 19.2509L19.2494 19.2499V17.1994L19.5659 16.6899C20.4389 15.2854 20.8999 13.6639 20.8999 11.9999Z" fill="#0C0C0C"/>
</svg>

<svg xmlns="http://www.w3.org/2000/svg" width="24" height="24" fill="none"><path fill="#0C0C0C" d="M21.449 17.828v3.622h-3.625l.002-.001A11.05 11.05 0 0 1 12 23.099C5.87 23.1.9 18.13.9 12S5.87.9 12 .9 23.1 5.87 23.1 12c0 2.14-.606 4.137-1.654 5.832zM20.899 12c0-4.908-3.992-8.9-8.9-8.9-4.907 0-8.9 3.992-8.9 8.9 0 4.907 3.993 8.9 8.9 8.9a8.9 8.9 0 0 0 4.689-1.333l.508-.316 2.053-.001V17.2l.317-.51A8.87 8.87 0 0 0 20.9 12"/></svg>
